X:285
T: SEY NUR STILL, HAST LANG GESCHWIEGEN
N: Z0283
O: Europa, Mitteleuropa, Deutschland, Coburg
R: Lyrisches Lied, Romanze
M: 4/4
L: 1/8
K: A
ABcd | e2e2fgaf | fee
dc3d | e2e2fedc | c2B2
ABcd | e2e2fgaf | fee
dc3d | e2e2fedc | c2B2z4 |
e3cd3B | cec2B2z2 |
cBceedc2 | BBccdfed | c2B2A2z2 |
e3cd3B | cec2B2z2 |
cBceedc2 | BBccdfed | c2B2A2z2

@@@ Tune index: 10043
